Alivio/img/icons/play.svg

<svg width="82" height="82" viewBox="0 0 82 82" fill="none" xmlns="http://www.w3.org/2000/svg">
<g clip-path="url(#clip0)">
<path d="M41.3715 0.407043C19.0808 0.407043 0.948334 18.5413 0.948334 40.8302C0.948334 63.1192 19.0808 81.2534 41.3715 81.2534C63.6622 81.2534 81.7947 63.1192 81.7947 40.8302C81.7947 18.5413 63.6622 0.407043 41.3715 0.407043ZM41.3715 77.8849C20.9395 77.8849 4.31688 61.2623 4.31688 40.8302C4.31688 20.3982 20.9395 3.77559 41.3715 3.77559C61.8036 3.77559 78.4262 20.3982 78.4262 40.8302C78.4262 61.2623 61.8036 77.8849 41.3715 77.8849Z" fill="white"/>
<path d="M57.4419 39.414L33.8618 24.2553C33.3453 23.9182 32.6775 23.9 32.1446 24.1928C31.6017 24.4889 31.2662 25.0548 31.2662 25.6715V55.9889C31.2662 56.6057 31.6017 57.1716 32.1446 57.4677C32.3946 57.6043 32.6742 57.6733 32.9505 57.6733C33.2663 57.6733 33.5855 57.5844 33.8618 57.4052L57.4419 42.2465C57.9223 41.9373 58.215 41.4026 58.215 40.8302C58.215 40.2578 57.9223 39.7233 57.4419 39.414ZM34.6347 52.9032V28.7573L53.4154 40.8302L34.6347 52.9032Z" fill="white"/>
</g>
<defs>
<clipPath id="clip0">
<rect width="80.8464" height="80.8464" fill="white" transform="translate(0.948334 0.407043)"/>
</clipPath>
</defs>
</svg>

<svg width="82" height="82" fill="none" xmlns="http://www.w3.org/2000/svg"><g clip-path="url(#clip0)" fill="#fff"><path d="M41.371.407C19.081.407.948 18.541.948 40.83c0 22.29 18.133 40.423 40.423 40.423 22.291 0 40.424-18.134 40.424-40.423S63.662.407 41.37.407zm0 77.478c-20.432 0-37.054-16.623-37.054-37.055S20.939 3.776 41.37 3.776c20.433 0 37.055 16.622 37.055 37.054 0 20.432-16.622 37.055-37.055 37.055z"/><path d="M57.442 39.414l-23.58-15.159a1.68 1.68 0 00-1.717-.062 1.682 1.682 0 00-.879 1.479v30.317a1.682 1.682 0 002.596 1.416l23.58-15.159c.48-.309.773-.843.773-1.416 0-.572-.293-1.107-.773-1.416zm-22.807 13.49V28.756l18.78 12.073-18.78 12.073z"/></g><defs><clipPath id="clip0"><path fill="#fff" transform="translate(.948 .407)" d="M0 0h80.846v80.846H0z"/></clipPath></defs></svg>
